symbols/s_townhall-el.svg

<?xml version="1.0" encoding="UTF-8" standalone="no"?>
<svg xmlns="http://www.w3.org/2000/svg" version="1.0" width="580" height="580">
 <metadata id="metadata2975"/>
 <path d="M 289.99998,36.391518 C 280.9425,36.5002 271.88502,42.348442 271.88502,54.50648 V 194.89741 L 72.620486,290.00095 H 507.37951 L 308.11495,194.89741 V 54.50648 c 0,-12.621061 -9.05749,-18.230893 -18.11497,-18.114962 z m 36.22992,0 V 145.08128 H 471.14957 L 398.68973,90.736382 471.14957,36.391518 Z M 72.620486,326.23088 v 36.22991 H 108.8504 V 507.38046 H 72.620486 v 36.22992 H 507.37951 V 507.38046 H 471.14957 V 362.46079 h 36.22994 v -36.22991 z m 217.379494,54.34487 c 36.22992,0 72.45985,18.11495 72.45985,54.34488 v 72.45983 H 217.54016 v -72.45983 c 0,-36.22993 36.22991,-54.34488 72.45982,-54.34488 z" id="town-hall-3" opacity="0.8" fill="none" stroke="#111111" vector-effect="none" stroke-linejoin="round" stroke-width="90"/>
 <path d="m 289.99998,36.391453 c -9.05748,0.108681 -18.11496,5.956923 -18.11496,18.114961 V 194.89734 L 72.620486,290.00088 H 507.37951 L 308.11495,194.89734 V 54.506414 c 0,-12.62106 -9.05749,-18.230892 -18.11497,-18.114961 z m 36.22992,0 V 145.08121 H 471.14957 L 398.68973,90.736312 471.14957,36.391453 Z M 72.620486,326.23081 v 36.22991 H 108.8504 V 507.38039 H 72.620486 v 36.22992 H 507.37951 V 507.38039 H 471.14957 V 362.46072 h 36.22994 v -36.22991 z m 217.379494,54.34487 c 36.22992,0 72.45985,18.11495 72.45985,54.34488 v 72.45983 H 217.54016 v -72.45983 c 0,-36.22993 36.22991,-54.34488 72.45982,-54.34488 z" id="town-hall" fill="#ffff12" vector-effect="none"/>
</svg>

<svg xmlns="http://www.w3.org/2000/svg" version="1.0" width="580" height="580"><path d="M290 36.392c-9.058.108-18.115 5.956-18.115 18.114v140.391L72.62 290.001h434.76l-199.265-95.104V54.507c0-12.622-9.058-18.231-18.115-18.115zm36.23 0v108.69h144.92l-72.46-54.346 72.46-54.344zM72.62 326.23v36.23h36.23v144.92H72.62v36.23h434.76v-36.23h-36.23V362.46h36.23v-36.23zM290 380.576c36.23 0 72.46 18.115 72.46 54.345v72.46H217.54v-72.46c0-36.23 36.23-54.345 72.46-54.345z" opacity=".8" fill="none" stroke="#111" stroke-linejoin="round" stroke-width="90"/><path d="M290 36.391c-9.058.11-18.115 5.957-18.115 18.115v140.391L72.62 290.001h434.76l-199.265-95.104V54.507c0-12.622-9.058-18.231-18.115-18.116zm36.23 0v108.69h144.92l-72.46-54.345 72.46-54.345zM72.62 326.231v36.23h36.23v144.92H72.62v36.23h434.76v-36.23h-36.23V362.46h36.23v-36.23zM290 380.576c36.23 0 72.46 18.115 72.46 54.345v72.46H217.54v-72.46c0-36.23 36.23-54.345 72.46-54.345z" fill="#ffff12"/></svg>
